!!!OTL: Tod der Geschwister ohne Text
!!!ARE: Europa, Suedosteuropa, Jugoslavija, Gottschee, Buehel
!!!YOR: 5, S. 207
!!    1906 aufgezeichnet
!!!SCT: Q0107F
!!!YEM: Copyright 1995, estate of Helmut Schaffrath.
**kern
*ICvox
*Ivox
*M3/4
*k[f#]
*G:
{8g
8a
=1
4b
4a
4g
=2
4a
4b
8a
8b
=3
4cc
4cc
4b
=4
2a}
{8g
8a
=5
4b
4a
8g
8a
=6
2b
8g
8a
=7
4b
4b
4a
=8
2g}
==
!!!AGN: Ballade, Tod
!!!ONB: ESAC (Essen Associative Code) Database: BALLADE
!!!AMT: simple triple
!!!AIN: vox
!!!EED: Helmut Schaffrath
!!!EEV: 1.0
*-
